packages/ui-solid/icons/attach_28.svg

<svg width="28" height="28" viewBox="0 0 28 28" fill="none" xmlns="http://www.w3.org/2000/svg">
<path fill-rule="evenodd" clip-rule="evenodd" d="M20.2862 6.44497C17.9446 4.13838 14.0971 4.13837 11.7556 6.44497L6.40327 11.7173C6.01403 12.1007 5.38767 12.096 5.00424 11.7068C4.62082 11.3175 4.62554 10.6912 5.01477 10.3077L10.3671 5.03541C13.4789 1.97013 18.5629 1.97013 21.6747 5.03542C24.7362 8.05117 24.7362 12.9046 21.6747 15.9204L14.327 23.1583C11.9726 25.4774 8.12907 25.4774 5.7747 23.1583C3.45435 20.8726 3.45435 17.191 5.7747 14.9054L13.1556 7.63476C14.7397 6.07429 17.2964 6.00289 18.9694 7.46778C20.8073 9.07706 20.8467 11.8788 19.0518 13.5363L12.8929 19.224C12.4916 19.5946 11.8657 19.5698 11.495 19.1684C11.1243 18.767 11.1492 18.1411 11.5506 17.7704L17.7094 12.0828C18.6394 11.224 18.6208 9.79239 17.666 8.95636C16.7703 8.1721 15.3879 8.21308 14.5441 9.04431L7.1632 16.3149C5.62961 17.8256 5.62961 20.238 7.1632 21.7487C8.74736 23.3092 11.3543 23.3092 12.9385 21.7487L20.2862 14.5108C22.5609 12.2701 22.5609 8.68571 20.2862 6.44497Z" fill="#007AFF"/>
</svg>

<svg xmlns="http://www.w3.org/2000/svg" width="28" height="28" fill="none"><path fill="currentColor" fill-rule="evenodd" d="M20.286 6.445c-2.341-2.307-6.189-2.307-8.53 0l-5.353 5.272a.99.99 0 0 1-1.388-1.41l5.352-5.272c3.112-3.065 8.196-3.065 11.308 0a7.6 7.6 0 0 1 0 10.885l-7.348 7.238c-2.354 2.32-6.198 2.32-8.552 0a5.76 5.76 0 0 1 0-8.253l7.38-7.27a4.294 4.294 0 0 1 5.814-.167 4.06 4.06 0 0 1 .083 6.068l-6.16 5.688a.99.99 0 0 1-1.341-1.454l6.158-5.687c.93-.859.912-2.29-.043-3.127a2.315 2.315 0 0 0-3.122.088l-7.38 7.27a3.784 3.784 0 0 0 0 5.435c1.583 1.56 4.19 1.56 5.775 0l7.347-7.238a5.62 5.62 0 0 0 0-8.066" clip-rule="evenodd"/></svg>
